X: 19
T: Aurotti's Dutch Skipper
%R: jig
B: Kitty Bridges "Collection of Country Dances 1745" p.19
F: http://www.vwml.org/browse/browse-collections-dance-tune-books/browse-bridges1745
Z: 2015 John Chambers <jc:trillian.mit.edu>
M: 6/8
L: 1/8
K: Bb
% - - - - - - - - - - - - - - - - - - - - - - - - - - - - -
F |\
BFB dcB | cAF e3 | dcB A/B/cA | BFD B,2D |\
BFB dcB | cAF cde | dcB FBA | B3- B2 :|
|: F |\
Bdf fdB | ceg g2F | Bdf fdB | Acc c2F |\
Bdf fdB | cba b2e | dcB FBA BFD B,2 :|
% - - - - - - - - - - Dance description - - - - - - - - - -
%%center Aurotti's Dutch Skipper
%%begintext align
%%   The first Man cast off behind the Second
%% Man and turn his Part.r once round the 1st
%% Wo. do the same w.th the secong Man The
%% 1st Cu being in the 2d Cu. place go the double
%% figure thro' the 3d Cu. and turn each other.
%%endtext

%%sep 1 1 500
%%sep 1 1 500

